assets/icons/qvision/touch_app.svg

<svg xmlns="http://www.w3.org/2000/svg" enable-background="new 0 0 24 24" height="24" viewBox="0 0 24 24" width="24"><g><rect fill="none" height="24" width="24" x="0"/></g><g><g><g><path d="M9,11.24V7.5C9,6.12,10.12,5,11.5,5S14,6.12,14,7.5v3.74c1.21-0.81,2-2.18,2-3.74C16,5.01,13.99,3,11.5,3S7,5.01,7,7.5 C7,9.06,7.79,10.43,9,11.24z M18.84,15.87l-4.54-2.26c-0.17-0.07-0.35-0.11-0.54-0.11H13v-6C13,6.67,12.33,6,11.5,6 S10,6.67,10,7.5v10.74c-3.6-0.76-3.54-0.75-3.67-0.75c-0.31,0-0.59,0.13-0.79,0.33l-0.79,0.8l4.94,4.94 C9.96,23.83,10.34,24,10.75,24h6.79c0.75,0,1.33-0.55,1.44-1.28l0.75-5.27c0.01-0.07,0.02-0.14,0.02-0.2 C19.75,16.63,19.37,16.09,18.84,15.87z"/></g></g></g></svg>

<svg width="24" height="24" viewBox="0 0 24 24" fill="none" xmlns="http://www.w3.org/2000/svg">
<g clip-path="url(#clip0_147_4902)">
<path d="M9 11.24V7.5C9 6.12 10.12 5 11.5 5C12.88 5 14 6.12 14 7.5V11.24C15.21 10.43 16 9.06 16 7.5C16 5.01 13.99 3 11.5 3C9.01 3 7 5.01 7 7.5C7 9.06 7.79 10.43 9 11.24ZM18.84 15.87L14.3 13.61C14.13 13.54 13.95 13.5 13.76 13.5H13V7.5C13 6.67 12.33 6 11.5 6C10.67 6 10 6.67 10 7.5V18.24C6.4 17.48 6.46 17.49 6.33 17.49C6.02 17.49 5.74 17.62 5.54 17.82L4.75 18.62L9.69 23.56C9.96 23.83 10.34 24 10.75 24H17.54C18.29 24 18.87 23.45 18.98 22.72L19.73 17.45C19.74 17.38 19.75 17.31 19.75 17.25C19.75 16.63 19.37 16.09 18.84 15.87Z" fill="#323232"/>
</g>
<defs>
<clipPath id="clip0_147_4902">
<rect width="24" height="24" fill="white"/>
</clipPath>
</defs>
</svg>
